T: Return To Miltown, The
M: 4/4
L: 1/8
K: Dmaj
D2AD EDDB,|C2EC FCEC|D2AD EDDB,|CDEG AEGE|D2AD EDDB,|C2EC FCEC|F2FD E2ED|CDEG AEGE:||:d2de f2ed|(3B^cd ef gfge|d2de f2ed|=cAGE EDD2|d2de f2ed|(3B^cd ef gfge|fafd eged|=cAGE D2AD EDAD | CE2D CEGE | D2AD EDAD |CDEG cGEC |\d3e f2ed | cdef g3e | =f2fd efed| =cAGE EDD2:|
